X: 38
T:Schottis frn Idre (Dm)
M:2/4
L:1/16
Q:70
C:e. Storbo-Jns
S:
R:Schottis
O:Sweden
A:Dalarna
N:
K:Dm
aage f2ed | ^c2A2 A4 | A=B^cd e2ec | d^cdf a4 |\
aage f2ed | ^c2A2 A4 | A=B^cd efec | d2d2 d4 ::
f2fg f2ed | e2a2 a2ge | f2fg f2ed | efe^c A4 |\
f2fg f2ed | e2a2 a2ge | f2df e2A^c | d2d2 d4 ::
d2d2 d^ced | ^c2A2 A2ag | f2ff f2gf | f2e^c A3A |\
Add2 d^ced | ^c2A2 A2ag | f2df e2A^c | d2d2 d4 :||
